packages/icons/svg/Fill/folder.svg

<svg fill="none" height="24" viewBox="0 0 24 24" width="24" xmlns="http://www.w3.org/2000/svg"><path clip-rule="evenodd" d="m19.5 20.5h-14.99998c-1.378 0-2.5-1.091-2.5-2.432v-12.136c0-1.341 1.122-2.432 2.5-2.432h4.601c.299 0 .584.135.774.367l2.59898 3.179h7.026c1.378 0 2.5 1.091 2.5 2.432v8.59c0 1.341-1.122 2.432-2.5 2.432" fill="#6b7280" fill-rule="evenodd"/></svg>

<svg width="24" height="24" viewBox="0 0 24 24" fill="none" xmlns="http://www.w3.org/2000/svg">
<g id="Icon/Fill/folder">
<path id="Mask" fill-rule="evenodd" clip-rule="evenodd" d="M19.5 20.5H4.5C3.122 20.5 2 19.409 2 18.068V5.932C2 4.591 3.122 3.5 4.5 3.5H9.101C9.4 3.5 9.685 3.635 9.875 3.867L12.474 7.046H19.5C20.878 7.046 22 8.137 22 9.478V18.068C22 19.409 20.878 20.5 19.5 20.5Z" fill="#000000"/>
</g>
</svg>
